openmetadata-ui/src/main/resources/ui/src/assets/svg/announcements-black.svg

<svg width="24" height="24" viewBox="0 0 24 24" fill="none" xmlns="http://www.w3.org/2000/svg">
<path d="M19.1598 5.4466C16.6011 1.64586 13.1837 -0.374195 11.3941 0.863526C11.197 1.00365 11.0258 1.17753 10.8881 1.3773C10.8881 1.39189 6.74505 9.85744 6.74505 9.85744L4.43211 11.4396C4.07704 11.683 3.77294 11.9946 3.53717 12.3567C3.30141 12.7187 3.1386 13.1241 3.05806 13.5497C2.97751 13.9753 2.9808 14.4128 3.06774 14.8371C3.15469 15.2614 3.32357 15.6643 3.56476 16.0227L3.66884 16.1774C4.15635 16.8944 4.90419 17.3885 5.75014 17.5525C6.59609 17.7164 7.47195 17.537 8.18775 17.0532L11.9029 22.5791C12.4493 23.2593 13.4988 23.9365 14.7941 23.1396C15.0235 22.9894 15.2193 22.7923 15.3687 22.561C15.5181 22.3297 15.6178 22.0694 15.6614 21.7968C15.7138 21.5257 15.7123 21.2467 15.6573 20.9762C15.6022 20.7056 15.4945 20.4487 15.3405 20.2204L12.0677 15.3454C12.0677 15.3454 19.8045 14.7237 19.8334 14.712C20.075 14.6609 20.304 14.5617 20.5071 14.4201C21.4264 13.7895 21.756 12.4672 21.438 10.6952C21.1518 9.06343 20.3394 7.2156 19.1598 5.4466ZM4.51017 15.6023L4.40609 15.4476C4.23968 15.2003 4.12323 14.9222 4.06339 14.6294C4.00355 14.3365 4.0015 14.0346 4.05736 13.741C4.11321 13.4473 4.22588 13.1677 4.38891 12.918C4.55194 12.6684 4.76213 12.4537 5.00745 12.2862L7.00526 10.9142L9.64201 14.8346L7.64421 16.2066C7.39917 16.3748 7.1237 16.4927 6.83354 16.5533C6.54338 16.614 6.24422 16.6164 5.95316 16.5602C5.6621 16.5041 5.38485 16.3906 5.13725 16.2263C4.88966 16.0619 4.67657 15.8499 4.51017 15.6023ZM14.5079 20.7955C14.6659 21.0329 14.7242 21.3239 14.67 21.6046C14.6158 21.8854 14.4535 22.1329 14.2187 22.293C13.9832 22.4527 13.6945 22.5117 13.416 22.457C13.1375 22.4023 12.8918 22.2383 12.7327 22.0011L9.02908 16.4927L10.518 15.471L10.9112 15.4389L14.5079 20.7955ZM10.599 14.4376L7.72516 10.1639L10.466 4.52123C10.732 6.10633 11.5097 7.98918 12.7529 9.837C13.9961 11.6848 15.4417 13.1094 16.8006 13.9443L10.599 14.4376ZM19.128 13.7574C17.746 13.6669 15.4966 12.0935 13.5914 9.25901C11.6861 6.42451 11.0674 3.74181 11.4924 2.40776C11.5691 2.15735 11.7223 1.93783 11.93 1.78056C12.1377 1.62328 12.3893 1.53629 12.6488 1.53201C14.0193 1.53201 16.3524 3.11419 18.3126 6.03043C19.4171 7.67099 20.2208 9.38746 20.4406 10.8879C20.8713 13.7574 19.128 13.7574 19.128 13.7574Z" fill="#37352F" stroke="#37352F" stroke-width="0.5"/>
<path d="M15.5467 5.55918C15.1926 5.48897 14.8281 5.49075 14.4747 5.56443C14.1212 5.63811 13.7859 5.78221 13.4882 5.9883C13.4334 6.02663 13.3865 6.0755 13.3504 6.13212C13.3142 6.18873 13.2894 6.25198 13.2775 6.31826C13.2656 6.38454 13.2667 6.45254 13.2807 6.51839C13.2948 6.58423 13.3216 6.64664 13.3596 6.70203C13.3975 6.75742 13.4459 6.80472 13.502 6.84123C13.5581 6.87774 13.6207 6.90274 13.6864 6.9148C13.752 6.92686 13.8194 6.92575 13.8846 6.91153C13.9498 6.89731 14.0116 6.87027 14.0665 6.83193C14.255 6.70274 14.4668 6.61231 14.69 6.56579C14.9131 6.51927 15.1431 6.51759 15.3669 6.56082C15.5906 6.60406 15.8038 6.69137 15.9941 6.81777C16.1845 6.94418 16.3483 7.1072 16.4763 7.29754C16.6042 7.48787 16.6938 7.70178 16.7398 7.92706C16.7859 8.15235 16.7876 8.38458 16.7448 8.61052C16.7019 8.83645 16.6155 9.05166 16.4903 9.24385C16.3651 9.43604 16.2036 9.60145 16.0151 9.73064C15.9262 9.79262 15.8593 9.88169 15.8242 9.98482C15.789 10.088 15.7875 10.1997 15.8198 10.3038C15.8521 10.4079 15.9166 10.4988 16.0038 10.5632C16.0909 10.6276 16.1962 10.6622 16.3042 10.6618C16.4073 10.6638 16.5084 10.6332 16.5933 10.5743C17.043 10.2667 17.3922 9.83129 17.5966 9.32319C17.801 8.8151 17.8514 8.25718 17.7415 7.72012C17.6316 7.18305 17.3663 6.69101 16.9792 6.30632C16.5921 5.92163 16.1006 5.66161 15.567 5.55918H15.5467Z" fill="#37352F" stroke="#37352F" stroke-width="0.5"/>
</svg>

<svg xmlns="http://www.w3.org/2000/svg" width="24" height="24" fill="none"><path fill="#37352F" stroke="#37352F" stroke-width=".5" d="M19.16 5.447C16.6 1.646 13.184-.374 11.394.864c-.197.14-.368.314-.506.513 0 .015-4.143 8.48-4.143 8.48L4.432 11.44a3.316 3.316 0 0 0-1.364 3.397c.087.424.256.827.497 1.186l.104.154a3.271 3.271 0 0 0 2.081 1.375 3.248 3.248 0 0 0 2.438-.499l3.715 5.526c.546.68 1.596 1.357 2.891.56a1.967 1.967 0 0 0 .867-1.342 2.11 2.11 0 0 0-.32-1.577l-3.273-4.875s7.737-.621 7.765-.633c.242-.051.471-.15.674-.292.92-.63 1.249-1.953.931-3.725-.286-1.632-1.099-3.48-2.278-5.248ZM4.51 15.602l-.104-.154a2.285 2.285 0 0 1-.349-1.707 2.287 2.287 0 0 1 .95-1.455l1.998-1.372 2.637 3.92-1.998 1.373a2.243 2.243 0 0 1-3.134-.605Zm9.998 5.194a1.089 1.089 0 0 1-.29 1.497 1.064 1.064 0 0 1-1.485-.292l-3.704-5.508 1.489-1.022.393-.032 3.597 5.357Zm-3.909-6.358-2.874-4.274 2.741-5.643c.266 1.585 1.044 3.468 2.287 5.316 1.243 1.848 2.689 3.272 4.048 4.107l-6.202.494Zm8.529-.68c-1.382-.091-3.631-1.664-5.537-4.499-1.905-2.834-2.524-5.517-2.099-6.851.077-.25.23-.47.438-.627.208-.158.46-.245.719-.249 1.37 0 3.703 1.582 5.664 4.498 1.104 1.641 1.908 3.357 2.128 4.858.43 2.87-1.313 2.87-1.313 2.87Z"/><path fill="#37352F" stroke="#37352F" stroke-width=".5" d="M15.547 5.56a2.69 2.69 0 0 0-2.059.428.51.51 0 0 0-.207.53.515.515 0 0 0 .405.397.503.503 0 0 0 .38-.083 1.726 1.726 0 0 1 2.41.466 1.76 1.76 0 0 1 .014 1.946 1.744 1.744 0 0 1-.475.487.51.51 0 0 0-.195.573.51.51 0 0 0 .773.27c.45-.307.8-.743 1.004-1.25a2.795 2.795 0 0 0-.618-3.018 2.735 2.735 0 0 0-1.412-.747h-.02Z"/></svg>
